src/assets/logos/roche.svg

<svg height="133" viewBox="0 0 257 133" width="257" xmlns="http://www.w3.org/2000/svg"><path d="m174.321955 51.2469204c3.838975 2.8238591 4.836699 5.5264994 4.836699 13.1101344v25.7318112h-8.48698l.009042-25.4057746c0-2.2625506.065109-4.3226719-.991092-5.8800042-.984461-1.464179-2.944339-2.0619128-4.344769-2.0063791-3.168602.1385357-4.877693 2.3563011-4.877693 4.3710401v28.9211178h-8.4912v-55.4166667h8.4912v16.9915225c1.807356-1.4241709 4.409878-2.2912132 7.125736-2.3234586 2.508476-.0412024 5.082663.6968584 6.729057 1.9066572zm-59.652956 12.6675957c.110929 1.1233719.239655 5.1095109.239655 6.5733167 0 3.2446295-.180335 5.9470864-.215927 6.5721159-.544563 8.727597-5.537574 14.2603988-13.371446 14.2603988-7.8392119 0-12.8357824-5.435535-13.3761926-14.2561959-.040338-.6700604-.2444007-3.3316893-.21652-6.5763188.0427108-4.4442538.1672839-5.8318072.2313501-6.5865258.8506568-9.4498933 5.5909624-14.4513299 13.3613625-14.4513299 5.481219 0 12.164866 2.5529542 13.347718 14.464539zm-8.078867 6.5733167c0-5.458951-.212367-7.7339142-.21652-7.7819472-.036185-3.0470937-1.611146-6.1248085-5.038095-6.1248085-3.4216092 0-4.9971632 3.0777148-5.039874 6.1530279-.0041524.0198136-.2159268 2.2947768-.2159268 7.7537278 0 5.4595514.2117744 7.3004163.2159268 7.3178283.1483014 2.9564315 1.5625035 6.3787831 5.039874 6.3787831 3.482117 0 4.757509-3.2080044 5.042248-6.2292804.042711-.4749263.212367-2.0077796.212367-7.467331zm96.304343 6.1488251h8.140043c-.532915 9.2481546-5.675389 14.6836896-13.362604 14.6836896-7.69384 0-12.83812-5.5808348-13.35598-14.2561959-.036732-.6244291-.214972-3.3316893-.214972-6.5763188 0-4.5499264.145121-5.7345404.224004-6.5823229.939977-9.5063321 5.713927-14.4555328 13.346948-14.4555328 3.980299 0 7.337358 1.5370561 9.717108 4.4610653 2.04615 2.5205319 3.388974 6.4286173 3.645496 9.9986704.158368 2.3253978.193294 3.4313578.219789 4.092412.051786 1.6877597.019269 4.4898851.019269 4.4898851h-18.903107c-.00843 3.4271549.154756 4.4292435.207144 5.3328644.237252 3.1695779 1.578872 6.3595699 5.094301 6.3595699 4.129033 0 4.91606-4.2010867 5.149097-6.1680383.088518-.7595219.073464-1.379748.073464-1.379748zm-10.466801-11.1610691h10.584223c.009033-.8195632-.074066-1.5940954-.154756-2.7498896-.143315-2.2017128-1.093528-6.1770444-5.165958-6.1446221-3.43233.0282194-4.922082 2.7871151-5.165958 6.1248085-.036732.5379697-.036732.9240349-.097551 2.7697032zm7.164019-65.28487098 57.408307 66.93413128-57.413042 66.0658689h-141.9708963l-57.6160617-66.2878041 57.6095509-66.71219608zm-138.7089731 6.70999925-51.99070931 60.21350743 51.98656611 59.7932475h135.4500093l51.774668-59.5907906-51.787098-60.41596433zm21.483236 79.80786433c.0645803 1.8919942.4176979 3.3802846.4176979 3.3802846h-8.237832s-.3442305-1.5389005-.4088107-3.3355594l-.86028-12.6872485c-.4514692-6.462205-3.4411197-8.7643765-6.0912796-8.7643765h-4.5816423l-.0047399 24.7824765h-8.2336847v-54.1804773h12.747192c7.8059146.0870965 14.4339805 3.8051741 14.476639 14.4062268.0219217 6.9641866-2.8930764 10.299746-5.1492375 11.6473873 3.1205884 1.8137251 4.6936209 5.3399551 5.0656979 11.3396072 0 0 .8602799 13.4163872.8602799 13.4116793zm-19.7621467-43.8195284v15.4225485h4.3505754c5.0254094 0 6.0871323-4.1894579 6.3223465-6.5851993.0319939-.2877714.0450285-.541999.0450285-1.2740801 0-.6314494-.0367338-.9692425-.0450285-1.2670182-.1066462-4.0340966-2.4333124-6.2962509-6.7264174-6.2962509zm76.0980818 33.3638653h8.307905c.028033.2383632-.017297.4665193-.04533.8069522-.783731 9.2781491-5.284517 14.2885777-13.448678 14.2603584-7.880849-.0240164-12.905315-5.4355195-13.444502-14.2561555-.040559-.6700585-.245736-3.3316799-.217703-6.5763002.042944-4.4442411.164022-5.8317906.228439-6.5865071.859479-9.4498665 5.621509-14.451289 13.433766-14.451289 5.515342 0 12.502714 2.795513 13.448678 14.3426146.021472.2749882.04533.7421079.069188 1.2974879h-8.303133c-.060838-1.6187077-.129429-2.3560122-.129429-2.3842315-.041751-3.0470851-1.532271-6.1482072-5.072182-6.1247912-3.4409.0282193-4.774555 2.7048509-5.069796 6.1530105-.075152.8916101-.249911 2.2947703-.213528 7.7537058.032208 4.6934118-.003579 5.9254548.148515 7.5129412.254683 2.620193 1.640228 6.1836314 5.134809 6.1836314 3.751053 0 4.834796-3.2878499 5.072182-6.378765.032208-.3854637.068591-.9366409.100799-1.5526625z" fill-rule="evenodd" transform="translate(0 -.19)"/></svg>

<svg xmlns="http://www.w3.org/2000/svg" width="257" height="133" viewBox="0 0 257 133">
  <path fill-rule="evenodd" d="M174.321955,51.2469204 C178.16093,54.0707795 179.158654,56.7734198 179.158654,64.3570548 L179.158654,90.088866 L170.671674,90.088866 L170.680716,64.6830914 C170.680716,62.4205408 170.745825,60.3604195 169.689624,58.8030872 C168.705163,57.3389082 166.745285,56.7411744 165.344855,56.7967081 C162.176253,56.9352438 160.467162,59.1530092 160.467162,61.1677482 L160.467162,90.088866 L151.975962,90.088866 L151.975962,34.6721993 L160.467162,34.6721993 L160.467162,51.6637218 C162.274518,50.2395509 164.87704,49.3725086 167.592898,49.3402632 C170.101374,49.2990608 172.675561,50.0371216 174.321955,51.2469204 Z M114.668999,63.9145161 C114.779928,65.037888 114.908654,69.024027 114.908654,70.4878328 C114.908654,73.7324623 114.728319,76.4349192 114.692727,77.0599487 C114.148164,85.7875457 109.155153,91.3203475 101.321281,91.3203475 C93.4820691,91.3203475 88.4854986,85.8848125 87.9450884,77.0641516 C87.9047504,76.3940912 87.7006877,73.7324623 87.7285684,70.4878328 C87.7712792,66.043579 87.8958523,64.6560256 87.9599185,63.901307 C88.8105753,54.4514137 93.5508809,49.4499771 101.321281,49.4499771 C106.8025,49.4499771 113.486147,52.0029313 114.668999,63.9145161 Z M106.590132,70.4878328 C106.590132,65.0288818 106.377765,62.7539186 106.373612,62.7058856 C106.337427,59.6587919 104.762466,56.5810771 101.335517,56.5810771 C97.9139078,56.5810771 96.3383538,59.6587919 96.295643,62.734105 C96.2914906,62.7539186 96.0797162,65.0288818 96.0797162,70.4878328 C96.0797162,75.9473842 96.2914906,77.7882491 96.295643,77.8056611 C96.4439444,80.7620926 97.8581465,84.1844442 101.335517,84.1844442 C104.817634,84.1844442 106.093026,80.9764398 106.377765,77.9551638 C106.420476,77.4802375 106.590132,75.9473842 106.590132,70.4878328 Z M202.894475,76.6366579 L211.034518,76.6366579 C210.501603,85.8848125 205.359129,91.3203475 197.671914,91.3203475 C189.978074,91.3203475 184.833794,85.7395127 184.315934,77.0641516 C184.279202,76.4397225 184.100962,73.7324623 184.100962,70.4878328 C184.100962,65.9379064 184.246083,64.7532924 184.324966,63.9055099 C185.264943,54.3991778 190.038893,49.4499771 197.671914,49.4499771 C201.652213,49.4499771 205.009272,50.9870332 207.389022,53.9110424 C209.435172,56.4315743 210.777996,60.3396597 211.034518,63.9097128 C211.192886,66.2351106 211.227812,67.3410706 211.254307,68.0021248 C211.306093,69.6898845 211.273576,72.4920099 211.273576,72.4920099 L192.370469,72.4920099 C192.362039,75.9191648 192.525225,76.9212534 192.577613,77.8248743 C192.814865,80.9944522 194.156485,84.1844442 197.671914,84.1844442 C201.800947,84.1844442 202.587974,79.9833575 202.821011,78.0164059 C202.909529,77.256884 202.894475,76.6366579 202.894475,76.6366579 Z M192.427674,65.4755888 L203.011897,65.4755888 C203.02093,64.6560256 202.937831,63.8814934 202.857141,62.7256992 C202.713826,60.5239864 201.763613,56.5486548 197.691183,56.5810771 C194.258853,56.6092965 192.769101,59.3681922 192.525225,62.7058856 C192.488493,63.2438553 192.488493,63.6299205 192.427674,65.4755888 Z M199.591693,0.190717822 L257,67.1248491 L199.586958,133.190718 L57.6160617,133.190718 L0,66.9029139 L57.6095509,0.190717822 L199.591693,0.190717822 Z M60.8827199,6.90071707 L8.89201059,67.1142245 L60.8785767,126.907472 L196.328586,126.907472 L248.103254,67.3166814 L196.316156,6.90071707 L60.8827199,6.90071707 Z M82.3659559,86.7085814 C82.4305362,88.6005756 82.7836538,90.088866 82.7836538,90.088866 L74.5458218,90.088866 C74.5458218,90.088866 74.2015913,88.5499655 74.1370111,86.7533066 L73.2767311,74.0660581 C72.8252619,67.6038531 69.8356114,65.3016816 67.1854515,65.3016816 L62.6038092,65.3016816 L62.5990693,90.0841581 L54.3653846,90.0841581 L54.3653846,35.9036808 L67.1125766,35.9036808 C74.9184912,35.9907773 81.5465571,39.7088549 81.5892156,50.3099076 C81.6111373,57.2740942 78.6961392,60.6096536 76.4399781,61.9572949 C79.5605665,63.77102 81.133599,67.29725 81.505676,73.2969021 C81.505676,73.2969021 82.3659559,86.7132893 82.3659559,86.7085814 Z M62.6038092,42.889053 L62.6038092,58.3116015 L66.9543846,58.3116015 C71.979794,58.3116015 73.0415169,54.1221436 73.2767311,51.7264022 C73.308725,51.4386308 73.3217596,51.1844032 73.3217596,50.4523221 C73.3217596,49.8208727 73.2850258,49.4830796 73.2767311,49.1853039 C73.1700849,45.1512073 70.8434187,42.889053 66.5503137,42.889053 L62.6038092,42.889053 Z M138.701891,76.2529183 L147.009796,76.2529183 C147.037829,76.4912815 146.992499,76.7194376 146.964466,77.0598705 C146.180735,86.3380196 141.679949,91.3484482 133.515788,91.3202289 C125.634939,91.2962125 120.610473,85.8847094 120.071286,77.0640734 C120.030727,76.3940149 119.82555,73.7323935 119.853583,70.4877732 C119.896527,66.0435321 120.017605,64.6559826 120.082022,63.9012661 C120.941501,54.4513996 125.703531,49.4499771 133.515788,49.4499771 C139.03113,49.4499771 146.018502,52.2454901 146.964466,63.7925917 C146.985938,64.0675799 147.009796,64.5346996 147.033654,65.0900796 L138.730521,65.0900796 C138.669683,63.4713719 138.601092,62.7340674 138.601092,62.7058481 C138.559341,59.658763 137.068821,56.5576409 133.52891,56.5810569 C130.08801,56.6092762 128.754355,59.2859078 128.459114,62.7340674 C128.383962,63.6256775 128.209203,65.0288377 128.245586,70.4877732 C128.277794,75.181185 128.242007,76.413228 128.394101,78.0007144 C128.648784,80.6209074 130.034329,84.1843458 133.52891,84.1843458 C137.279963,84.1843458 138.363706,80.8964959 138.601092,77.8055808 C138.6333,77.4201171 138.669683,76.8689399 138.701891,76.2529183 Z" transform="translate(0 -.19)"/>
</svg>
